X: 11402
T: East Clare, The
R: reel
M: 4/4
K: Dmixolydian
|:D2 FA d2 cA|GEED EFGB|Ad d2 dcAB|cAGE EDCE|
DEFA d2 cA|GEED EFGB|Ad d2 dcAB|1 cAGE EDCE:|2 cAGE ED D2||
|:aged c2 ed|c3 d eg g2|aged cded|cAGE EDDg
ed (3efg aged|d^cAB =cAGc|AcGE =FGAB|1 cAGE ED D2:|
[2 cAGE EDCE||["Final Ending" cAGE ED D2||

